X: 31252
T: COTILLION No. 21. WOONSOCKET SETT tune 6
C:
%R: jig
B: Elias Howe "The Musician's Companion" Part 3 1844 p.125 #2
S: http://imslp.org/wiki/The_Musician's_Companion_(Howe,_Elias)
Z: 2015 John Chambers <jc:trillian.mit.edu>
M: 6/8
L: 1/8
K: C
% - - - - - - - - - - - - - - - - - - - - - - - - - - - - -
CDC E2G | c>de cAG | A>BA a2g | gfe d2c |\
CDC E2G | cde cAG | A>cA G>EG | GcE D2C H|]
efg geg | agf edc | efg abc' | cde d2c |\
efg geg | agf edc | GcA GEG | AcE D2"^D.C."C |]
K:Cm
c2c e2e | g3 g2a | gfe e>dc | dAd G2G |\
G>AB | e>fe | g>ag b2g | g2f e2d | efe "^D.C."e2 |]
% - - - - - - - - - - Dance description - - - - - - - - - -
%%begintext align
%% First 2 forward and back,
%% back to back,
%% ladies cross hands round and back,
%% give the other hands to partners and balance, &c.
%%endtext
% - - - - - - - - - - - - - - - - - - - - - - - - - - - - -
%%sep 1 1 300
